public/cloud-icons/azure/networking/nginx-deployment.svg

<?xml version="1.0" encoding="UTF-8" standalone="no"?>
<!-- Generated by Microsoft Visio, SVG Export NGINX Deployment.svg Page-1 -->

<svg
   xmlns:dc="http://purl.org/dc/elements/1.1/"
   xmlns:cc="http://creativecommons.org/ns#"
   xmlns:rdf="http://www.w3.org/1999/02/22-rdf-syntax-ns#"
   xmlns:svg="http://www.w3.org/2000/svg"
   xmlns="http://www.w3.org/2000/svg"
   xmlns:sodipodi="http://sodipodi.sourceforge.net/DTD/sodipodi-0.dtd"
   xmlns:inkscape="http://www.inkscape.org/namespaces/inkscape"
   width="0.70861495in"
   height="0.78742409in"
   viewBox="0 0 51.020236 56.694532"
   xml:space="preserve"
   class="st5"
   version="1.1"
   id="svg31"
   sodipodi:docname="NGINX Deployment.svg"
   style="font-size:12px;overflow:visible;color-interpolation-filters:sRGB;fill:none;fill-rule:evenodd;stroke-linecap:square;stroke-miterlimit:3"
   inkscape:version="0.92.5 (2060ec1f9f, 2020-04-08)"><metadata
   id="metadata37"><rdf:RDF><cc:Work
       rdf:about=""><dc:format>image/svg+xml</dc:format><dc:type
         rdf:resource="http://purl.org/dc/dcmitype/StillImage" /></cc:Work></rdf:RDF></metadata><defs
   id="defs35" /><sodipodi:namedview
   pagecolor="#ffffff"
   bordercolor="#666666"
   borderopacity="1"
   objecttolerance="10"
   gridtolerance="10"
   guidetolerance="10"
   inkscape:pageopacity="0"
   inkscape:pageshadow="2"
   inkscape:window-width="640"
   inkscape:window-height="480"
   id="namedview33"
   showgrid="false"
   inkscape:zoom="1.7635102"
   inkscape:cx="34.015948"
   inkscape:cy="21.556355"
   inkscape:window-x="0"
   inkscape:window-y="0"
   inkscape:window-maximized="0"
   inkscape:current-layer="svg31" />
	<style
   type="text/css"
   id="style2">
	<![CDATA[
		.st1 {fill:#009639}
		.st2 {stroke:none;stroke-linecap:butt;stroke-width:9.65909}
		.st3 {fill:#ffffff;stroke:none;stroke-linecap:butt;stroke-width:9.65909}
		.st4 {fill:#999999;stroke:none;stroke-linecap:butt;stroke-width:9.65909}
		.st5 {fill:none;fill-rule:evenodd;font-size:12px;overflow:visible;stroke-linecap:square;stroke-miterlimit:3}
	]]>
	</style>

	<g
   id="g29"
   transform="translate(-9.6590627,-9.6567291)">
		<title
   id="title4">Page-1</title>
		<g
   id="group18929-1"
   transform="translate(9.65923,-34.0157)">
			<title
   id="title6">NGINX Deployment.18929</title>
			<g
   id="group18930-2">
				<title
   id="title8"> NGINX-hex-source-RGB-02</title>
				<g
   id="shape18931-3">
					<title
   id="title10">Sheet.18931</title>
					<path
   d="m 0.4,86.19 a 2.92988,2.8638 -180 0 0 1.1,1.07 l 22.52,12.71 a 2.95486,2.88821 -180 0 0 2.99,0 L 49.53,87.26 a 2.95324,2.88664 -180 0 0 1.49,-2.53 v -25.42 0 A 2.95405,2.88742 -180 0 0 49.53,56.78 L 27.01,44.07 a 2.95083,2.88428 -180 0 0 -2.99,0 L 1.5,56.78 A 2.95244,2.88585 -180 0 0 0,59.31 v 25.42 a 2.93552,2.86931 -180 0 0 0.39,1.46 z"
   class="st1"
   id="path12"
   inkscape:connector-curvature="0"
   style="fill:#009639" />
					<path
   d="m 0.4,86.19 a 2.92988,2.8638 -180 0 0 1.1,1.07 l 22.52,12.71 a 2.95486,2.88821 -180 0 0 2.99,0 L 49.53,87.26 a 2.95324,2.88664 -180 0 0 1.49,-2.53 v -25.42 0 A 2.95405,2.88742 -180 0 0 49.53,56.78 L 27.01,44.07 a 2.95083,2.88428 -180 0 0 -2.99,0 L 1.5,56.78 A 2.95244,2.88585 -180 0 0 0,59.31 v 25.42 a 2.93552,2.86931 -180 0 0 0.39,1.46"
   class="st2"
   id="path14"
   inkscape:connector-curvature="0"
   style="stroke:none;stroke-width:9.65909004;stroke-linecap:butt" />
				</g>
				<g
   id="shape18932-6"
   transform="translate(12.5098,-15.8406)">
					<title
   id="title17">Sheet.18932</title>
					<path
   d="m 5.79,97.54 a 2.89605,2.83073 0 1 1 -5.79,0 v 0 -19.43 C 0,76.6 1.36,75.36 3.29,75.36 a 5.15005,5.0339 0 0 1 3.95,1.72 l 0.87,1.02 12.1,14.16 v -14.07 0 a 2.89605,2.83073 0 0 1 5.79,0 v 19.43 c 0,1.5 -1.36,2.75 -3.29,2.75 A 5.14683,5.03075 0 0 1 18.76,98.64 L 5.79,83.46 Z"
   class="st3"
   id="path19"
   inkscape:connector-curvature="0"
   style="fill:#ffffff;stroke:none;stroke-width:9.65909004;stroke-linecap:butt" />
				</g>
				<g
   id="shape18933-8"
   transform="translate(47.1613,-4.40665)">
					<title
   id="title22">Sheet.18933</title>
					<path
   d="M 1.14,99.51 H 1.51 V 98.7 h 0.3 a 0.835383,0.816542 0 0 1 0.410844,0.06693 0.515569,0.503941 0 0 1 0.195755,0.468508 L 2.41,99.4 2.42,99.47 a 0.127281,0.12441 0 0 1 0.00644,0.02599 C 2.43,99.5 2.43,99.5 2.44,99.51 H 2.78 L 2.77,99.49 A 0.240867,0.235435 0 0 1 2.7538885,99.385275 C 2.74,99.32 2.74,99.27 2.74,99.23 V 99.08 A 0.597738,0.584257 -180 0 0 2.625608,98.760312 0.532486,0.520477 -180 0 0 2.260682,98.56031 0.90144,0.881109 -180 0 0 2.56519,98.463459 0.456762,0.44646 -180 0 0 2.769807,98.057944 0.515569,0.503941 -180 0 0 2.445965,97.538255 1.61115,1.57482 -180 0 0 1.88,97.46 H 1.14 Z M 2.2,98.4 A 0.957025,0.935441 0 0 1 1.847963,98.44567 L 1.51,98.45 V 97.7 h 0.32 a 0.930441,0.909456 0 0 1 0.444678,0.08032 0.317397,0.310239 0 0 1 0.138559,0.299215 0.322231,0.314963 0 0 1 -0.2167,0.320475 z m 1.07,-1.23 a 1.85927,1.81734 -180 0 0 -1.36,-0.54 1.9131552,1.87 -180 1 0 0,3.74 1.91486,1.87167 -180 0 0 1.36,-3.2 z M 3.08,97.36 A 1.56604,1.53072 0 0 1 3.56,98.5 1.64338,1.60631 0 0 1 0.75,99.64 1.62163,1.58505 0 0 1 0.27,98.5 1.64821,1.61104 0 0 1 1.91,96.88 1.56765,1.5323 0 0 1 3.08,97.36 Z"
   class="st4"
   id="path24"
   inkscape:connector-curvature="0"
   style="fill:#999999;stroke:none;stroke-width:9.65909004;stroke-linecap:butt" />
				</g>
			</g>
		</g>
	</g>
</svg>

<svg xmlns="http://www.w3.org/2000/svg" xml:space="preserve" width="68.027" height="75.593" style="font-size:12px;overflow:visible;color-interpolation-filters:sRGB;fill-rule:evenodd;stroke-linecap:square;stroke-miterlimit:3" viewBox="0 0 51.02 56.695"><g transform="translate(-9.66 -9.657)"><title>Page-1</title><g transform="translate(9.66 -34.016)"><title>NGINX Deployment.18929</title><title> NGINX-hex-source-RGB-02</title><title>Sheet.18931</title><path d="M.4 86.19a2.93 2.864-180 0 0 1.1 1.07l22.52 12.71a2.955 2.888-180 0 0 2.99 0l22.52-12.71a2.953 2.887-180 0 0 1.49-2.53V59.31a2.954 2.887-180 0 0-1.49-2.53L27.01 44.07a2.95 2.884-180 0 0-2.99 0L1.5 56.78A2.952 2.886-180 0 0 0 59.31v25.42a2.936 2.87-180 0 0 .39 1.46z" style="fill:#009639"/><path d="M.4 86.19a2.93 2.864-180 0 0 1.1 1.07l22.52 12.71a2.955 2.888-180 0 0 2.99 0l22.52-12.71a2.953 2.887-180 0 0 1.49-2.53V59.31a2.954 2.887-180 0 0-1.49-2.53L27.01 44.07a2.95 2.884-180 0 0-2.99 0L1.5 56.78A2.952 2.886-180 0 0 0 59.31v25.42a2.936 2.87-180 0 0 .39 1.46" style="stroke:none;stroke-width:9.65909004;stroke-linecap:butt"/><g transform="translate(12.51 -15.84)"><title>Sheet.18932</title><path d="M5.79 97.54a2.896 2.83 0 1 1-5.79 0V78.11c0-1.51 1.36-2.75 3.29-2.75a5.15 5.034 0 0 1 3.95 1.72l.87 1.02 12.1 14.16V78.19a2.896 2.83 0 0 1 5.79 0v19.43c0 1.5-1.36 2.75-3.29 2.75a5.147 5.03 0 0 1-3.95-1.73L5.79 83.46Z" style="fill:#fff;stroke:none;stroke-width:9.65909004;stroke-linecap:butt"/></g><g transform="translate(47.161 -4.407)"><title>Sheet.18933</title><path d="M1.14 99.51h.37v-.81h.3a.835.817 0 0 1 .41.067.516.504 0 0 1 .197.468l-.007.165.01.07a.127.124 0 0 1 .006.026l.014.014h.34l-.01-.02a.24.235 0 0 1-.016-.105c-.014-.065-.014-.115-.014-.155v-.15a.598.584-180 0 0-.114-.32.532.52-180 0 0-.365-.2.901.881-180 0 0 .304-.097.457.446-180 0 0 .205-.405.516.504-180 0 0-.324-.52 1.611 1.575-180 0 0-.566-.078h-.74ZM2.2 98.4a.957.935 0 0 1-.352.046l-.338.004v-.75h.32a.93.91 0 0 1 .445.08.317.31 0 0 1 .138.3.322.315 0 0 1-.216.32zm1.07-1.23a1.86 1.817-180 0 0-1.36-.54 1.913 1.87-180 1 0 0 3.74 1.915 1.872-180 0 0 1.36-3.2m-.19.19a1.566 1.53 0 0 1 .48 1.14 1.643 1.606 0 0 1-2.81 1.14 1.622 1.585 0 0 1-.48-1.14 1.648 1.611 0 0 1 1.64-1.62 1.568 1.532 0 0 1 1.17.48" style="fill:#999;stroke:none;stroke-width:9.65909004;stroke-linecap:butt"/></g></g></g></svg>
